icon-themes/breeze_svg/cmd/sc_dbsortingandgrouping.svg

<svg viewBox="0 0 16 16" xmlns="http://www.w3.org/2000/svg"><path d="m3 2a1 1 0 0 0 -1 1 1 1 0 0 0 1 1 1 1 0 0 0 1-1 1 1 0 0 0 -1-1z" fill="#2ecc71"/><path d="m3 8a1 1 0 0 0 -1 1 1 1 0 0 0 1 1 1 1 0 0 0 1-1 1 1 0 0 0 -1-1z" fill="#da4453"/><path d="m5 2v1h2 1 2v-1h-2-1zm6 0v6 4.09375l-2-2v1.40625l2.28125 2.3125.21875.1875.21875-.1875 2.28125-2.3125v-1.40625l-2 2v-4.09375-6zm-6 2v1h2 1v-1h-1zm0 4v1h2 1 2v-1h-2-1zm0 2v1h2 1v-1h-1z" fill="#4d4d4d"/></svg>

<svg xmlns="http://www.w3.org/2000/svg" viewBox="0 0 16 16">
 <path 
     style="fill:#2ecc71" 
     d="M 3 2 A 1 1 0 0 0 2 3 A 1 1 0 0 0 3 4 A 1 1 0 0 0 4 3 A 1 1 0 0 0 3 2 z "
     />
 <path 
     style="fill:#da4453" 
     d="M 3 8 A 1 1 0 0 0 2 9 A 1 1 0 0 0 3 10 A 1 1 0 0 0 4 9 A 1 1 0 0 0 3 8 z "
     />
 <path 
     style="fill:#4d4d4d" 
     d="M 5 2 L 5 3 L 7 3 L 8 3 L 10 3 L 10 2 L 8 2 L 7 2 L 5 2 z M 11 2 L 11 8 L 11 12.09375 L 9 10.09375 L 9 11.5 L 11.28125 13.8125 L 11.5 14 L 11.71875 13.8125 L 14 11.5 L 14 10.09375 L 12 12.09375 L 12 8 L 12 2 L 11 2 z M 5 4 L 5 5 L 7 5 L 8 5 L 8 4 L 7 4 L 5 4 z M 5 8 L 5 9 L 7 9 L 8 9 L 10 9 L 10 8 L 8 8 L 7 8 L 5 8 z M 5 10 L 5 11 L 7 11 L 8 11 L 8 10 L 7 10 L 5 10 z "
     />
 </svg>
